X:155
T:Stathspey (The Native Country of the Sprightly Dance)
T:Srath-Sp\`e
R:Slow Air
S:Simon Fraser Collection
N:No.155
O:Scottish
M:C
L:1/8
Q:1/4=100
K:G
B,|EE E>F E>D B,2|G,<G, B,>C D2 D3/2F/4G/4|EE E>F E>F B, z/d/|
B<GA<F [G,2E2] E)F|EE E>F E>D B,2|G,G, B,>C D2 D3/2F/4G/4|
EE E>F (G/A/)B/^c/ d>=c|B<GA>F [G2E2] E||
B|e>B e<f e>^d e<f|d<A f>e d2 d>f|e>^de>f (g/a/)b/^c'/ d'>c'|
b/^c'/d a>f e2 eg/a/|[gb][gb] [bg](a/g/) [fa][fa] [fa](f/e/)|
[df][df] (g/f/a/f/) d2 d(e/f/)|(g/e/f/d/ e/^c/d/)F/ (G/A/)B/^c/ d>=c|
B<G A>G [G,2E2][G,E]||

